projects/flag-game/flags/Cocos Keeling Islands.svg

<svg viewBox="0 0 1000 502" xmlns="http://www.w3.org/2000/svg"><g fill-rule="evenodd"><path d="m0 2.082031h1000v500h-1000zm0 0" fill="#008000"/><path d="m280.09375 147.917969c0 60.082031-48.714844 108.796875-108.796875 108.796875-60.089844 0-108.796875-48.714844-108.796875-108.796875 0-60.085938 48.707031-108.800781 108.796875-108.800781 60.082031 0 108.796875 48.714843 108.796875 108.800781zm0 0" fill="#ffe000"/><path d="m164.097656 230.199219h27.253906s1.226563-2.496094-.277343-3.742188c-1.507813-1.253906-7.367188-1.523437-5.785157-5.941406 3.253907-9.082031 3.707032-6.28125 5.75-27.855469 2.042969-21.574218 3.027344-55.402344 3.027344-55.402344h-3.929687s.757812 10.519532-1.515625 24.21875c-2.269532 13.703126-2.953125 14.90625-5.449219 25.429688-2.5 10.523438-2.875 11.433594-5.144531 17.5625-2.269532 6.128906-2.5 6.433594-6.054688 12.109375-3.5625 5.679687-2.269531 3.554687-4.238281 6.964844-.988281 1.699219-2.199219 1.246093-2.855469 2.492187-.671875 1.234375-.78125 4.164063-.78125 4.164063zm0 0" fill="#802000" stroke="#7b3100" stroke-width="2.314815"/><g fill="#ffe000"><path d="m750 383.03125 6.886719 21.421875 21.035156-7.96875-12.441406 18.734375 19.34375 11.480469-22.414063 1.945312 3.085938 22.28125-15.496094-16.296875-15.496094 16.296875 3.085938-22.28125-22.414063-1.945312 19.34375-11.480469-12.441406-18.734375 21.035156 7.96875zm0 0"/><path d="m750 49.699219 6.886719 21.417969 21.035156-7.96875-12.441406 18.738281 19.34375 11.480469-22.414063 1.945312 3.085938 22.28125-15.496094-16.300781-15.496094 16.300781 3.085938-22.28125-22.414063-1.945312 19.34375-11.480469-12.441406-18.738281 21.035156 7.96875zm0 0"/><path d="m625 185.113281 6.886719 21.421875 21.035156-7.96875-12.441406 18.734375 19.34375 11.484375-22.414063 1.945313 3.085938 22.28125-15.496094-16.300781-15.496094 16.300781 3.085938-22.28125-22.414063-1.945313 19.34375-11.484375-12.441406-18.734375 21.035156 7.96875zm0 0"/><path d="m861.109375 151.78125 6.894531 21.421875 21.023438-7.96875-12.441406 18.734375 19.34375 11.480469-22.402344 1.945312 3.082031 22.28125-15.5-16.296875-15.496094 16.296875 3.085938-22.28125-22.40625-1.945312 19.335937-11.480469-12.441406-18.734375 21.035156 7.96875zm0 0"/><path d="m800 252.082031 5.445312 13.347657 14.371094 1.050781-11.011718 9.300781 3.441406 13.988281-12.246094-7.59375-12.246094 7.59375 3.441406-13.988281-11.011718-9.300781 14.371094-1.050781zm0 0"/><path d="m500 147.917969c-57.503906 0-104.167969 46.660156-104.167969 104.164062 0 57.503907 46.664063 104.167969 104.167969 104.167969 26.960938 0 51.300781-10.523438 69.808594-27.34375-1.367188.667969-2.578125 1.578125-3.980469 2.171875-5.125 2.164063-10.480469 3.851563-16.054687 4.988281-5.582032 1.140625-11.378907 1.734375-17.292969 1.734375-5.917969 0-11.710938-.59375-17.285157-1.734375-5.585937-1.136718-10.9375-2.824218-16.066406-4.988281-5.125-2.171875-9.976562-4.875-14.535156-7.957031-4.566406-3.085938-8.855469-6.542969-12.734375-10.417969-3.875-3.882813-7.40625-8.167969-10.492187-12.738281-3.074219-4.554688-5.710938-9.40625-7.882813-14.53125-2.164063-5.128906-3.851563-10.480469-4.992187-16.066406-1.136719-5.574219-1.730469-11.367188-1.730469-17.285157 0-5.914062.59375-11.710937 1.730469-17.285156 1.140624-5.582031 2.828124-10.9375 4.992187-16.0625 2.171875-5.128906 4.808594-9.976563 7.882813-14.535156 3.085937-4.566407 6.617187-8.851563 10.492187-12.738281 3.878906-3.871094 8.167969-7.328126 12.734375-10.414063 4.558594-3.085937 9.410156-5.785156 14.535156-7.960937 5.128906-2.164063 10.480469-3.847657 16.066406-4.988282 5.574219-1.136718 11.367188-1.734375 17.285157-1.734375 5.914062 0 11.710937.597657 17.292969 1.734375 5.574218 1.140625 10.929687 2.824219 16.054687 4.988282 1.402344.59375 2.613281 1.507812 3.980469 2.175781-18.507813-16.820313-42.847656-27.34375-69.808594-27.34375zm0 0"/></g><path d="m184.894531 68.417969c.226563 4.230469-.195312 9.835937-1.953125 14.394531-1.78125 5.078125-3.710937 10.148438-3.613281 15.40625-2.832031.964844-5.746094-6.121094-8.460937-1.953125 2.042968 5.761719 6.761718 10.316406 10 15.5.546874 1.605469 5.199218 5.804687 2.507812 6.78125-6.796875-2.328125-8.449219-10.945313-12.664062-16.179687-4.898438-8.804688-14.03125-15.019532-24.210938-15.453126-3.816406.097657-16.242188-.941406-13.011719 5.597657 4.757813 3.230469 10.628907 5.347656 15.332031 8.976562 3.5.335938 9.855469 6.179688 9.480469 8.390625-6.160156-2.496094-9.039062-5.484375-15.683593-8.113281-8.988282-3.472656-21.433594-1.382813-26.414063 7.542969-.929687 2.320312-2.292969 9.101562.625 9.742187 3.410156-5.320312 8.285156-11.28125 15.519531-9.675781 5.679688.441406-6.339844 10.578125-1.742187 8.539062 1.460937-.644531 4.820312-2.859374 7.15625-3.085937 2.324219-.226563 3.636719 1.511719 5.402343 1.757813 3.539063.480468 4.515626 1.96875 4.191407 2.832031-.390625 1.015625-1.515625.148437-5.113281 1.285156-1.804688.570313-2.738282 2.15625-4.839844 2.878906-2.101563.726563-6.460938.773438-8.097656.132813-5.703126-2.484375-15.070313-2.050782-16.847657 5.101562 0 3.148438-2.796875-.339844-4.089843 1.015625-.976563 3.4375-1.222657 6.960938-6.316407 6.644531-3.09375 3.246094-6.257812 6.597657-10.179687 8.910157 2.300781 5.28125 11.425781-5.308594 11-.847657-3.984375 5.445313 2.050781 6.59375 4.699218 2.402344 4.472657-4.730468 10.007813-10.484375 16.691407-5.714844 3.171875 2.988282 5.019531-1.585937 7.320312-1.339843 1.449219 3.71875 3.273438.183593 4.917969-.867188 2.691406-.339843 1.933594 3.363281 5.132812 1.085938 6.382813-4.222657 14.226563-.675781 20.460938-4.785157 6.632812-3.019531.933594 2.441407-.894531 4.570313-2.914063 5.648437-.390625 13.070313-6.714844 16.578125-2.539063 6.738281 3.003906 15.617188-2.644531 20.597656-.824219 3.125 7.265625 2.765625 9.527344 4.050782 3.980468.15625-.167969-9.105469 3.777343-10.339844 5.296875 3.269531 5.046875-5.859375 3.957031-8.675782.511719-6.40625.871094-13.402343 4.050782-19.207031 3.386718-7.109375 6.519531 2.898438 2.734375 5.707031-2.15625 6.542969-5.289063 14.722657-.398438 20.796876 1.414063.320312 2.570313 3.738281 4.394531 4.785156 1.832032 1.050781 4.320313-.265625 4.777344-3.375 2.34375-9.359375 1.164063-19.433594 4.5-28.53125 2.359375-2.824219 5.613282-.457032 7.078125 2.132812 4.6875 5.445313 7.984375 12.246094 13.65625 16.722656 5.167969 2.417969 9.734375 6.070313 12.109375 11.390626-.03125 4.105468 11.65625 4.730468 8.164063.175781-3.351563-4.445313-1.140625-8.878907 2.253906-11.835938 1.816406.449219 1.277344-2.808593-.148437-1.523437-2.277344-.535156-2.421876-4.707032.75-2.722656 5.339843 1.722656-.421876-3.867188-2.351563-4.039063-4.515625-2.796875-9.699219-6.019531-11.921875-10.878906 5.875.058593 11.980469 3.230469 17.984375 1.261719 4.816406-2.472657 9.699219.203124 11.386719 4.453124 3.71875-.59375 2.132812-4.332031 0-5.578124 2.714844-1.121094 4.605468-3.449219 1.300781-5.5-1.742187-2.277344 2.335937-6.160157-2.675781-6 .164062-3.828126-1.34375-7.339844-5.527344-8.65625-4.183594-3.546876-16.460938 5.214843-16.105469-2.765626-1.234375-4.355468 4.988281-.585937 6.730469-2.75 1.796875-4.582031-8.570312-4.136718-5.144531-7.691406 2.230469-1.441406 12.714843-3.5 4.496093-5.046875-4.105468 1.128907-7.628906.292969-10.847656-1.734375-2.949218 4.925782-11.347656-2.667968-9.851562 6.078125-1.15625 3.296875-8.65625 11.859375-10.691406 5.300781 1.722656-5.144531 10.628906-6.828124 7.871093-13.761718-.425781-4.328125-4.011719.757812-5.707031.429687-.855469-2.691406 2.589844-5.867187 4.988281-6.507812 4.769531 3.660156 4.90625-4.625 9.441407-3.949219 3.3125-.738281-1.066407-2.15625-1.984376-2.78125.902344-2.417969 5.980469-3.652344 1-5.761719-4.394531-3.265625-7.648437 3.246094-11.28125 3.59375-3.472656-3.929687 3.167969-5.816406 5-7.882812.097657-1.546875-3.875-.464844-2.679687-1.808594 1.035156-1.855469 8.066406-1.992187 4.777344-4.777344-4.964844-1.699219-11.351563-1.277343-16.113281.929688-2.996094.96875-3.875 7.746093-6.460938 7.460937-1.210938-3.019531.398438-8.964844-3.761719-9.835937zm23.4375 66.183593c3.777344-.632812.082031 5.738282-1.730469 5.648438.152344-2.292969-5.46875-2.074219-1.980468-4.070312 1.132812-.730469 2.394531-1.285157 3.710937-1.578126zm0 0" fill="#008000"/></g></svg>

<?xml version="1.0" encoding="UTF-8"?>
<svg xmlns="http://www.w3.org/2000/svg" xmlns:xlink="http://www.w3.org/1999/xlink" viewBox="0 0 1000 502" version="1.1">
<g id="surface304">
<path style=" stroke:none;fill-rule:evenodd;fill:rgb(0%,50.195312%,0%);fill-opacity:1;" d="M 0 2.082031 L 1000 2.082031 L 1000 502.082031 L 0 502.082031 Z M 0 2.082031 "/>
<path style=" stroke:none;fill-rule:evenodd;fill:rgb(99.998474%,87.841797%,0%);fill-opacity:1;" d="M 280.09375 147.917969 C 280.09375 208 231.378906 256.714844 171.296875 256.714844 C 111.207031 256.714844 62.5 208 62.5 147.917969 C 62.5 87.832031 111.207031 39.117188 171.296875 39.117188 C 231.378906 39.117188 280.09375 87.832031 280.09375 147.917969 Z M 280.09375 147.917969 "/>
<path style="fill-rule:evenodd;fill:rgb(50.195312%,12.548828%,0%);fill-opacity:1;stroke-width:2.314815;stroke-linecap:butt;stroke-linejoin:miter;stroke:rgb(48.234558%,19.215393%,0%);stroke-opacity:1;stroke-miterlimit:4;" d="M 164.097656 230.199219 L 191.351562 230.199219 C 191.351562 230.199219 192.578125 227.703125 191.074219 226.457031 C 189.566406 225.203125 183.707031 224.933594 185.289062 220.515625 C 188.542969 211.433594 188.996094 214.234375 191.039062 192.660156 C 193.082031 171.085938 194.066406 137.257812 194.066406 137.257812 L 190.136719 137.257812 C 190.136719 137.257812 190.894531 147.777344 188.621094 161.476562 C 186.351562 175.179688 185.667969 176.382812 183.171875 186.90625 C 180.671875 197.429688 180.296875 198.339844 178.027344 204.46875 C 175.757812 210.597656 175.527344 210.902344 171.972656 216.578125 C 168.410156 222.257812 169.703125 220.132812 167.734375 223.542969 C 166.746094 225.242188 165.535156 224.789062 164.878906 226.035156 C 164.207031 227.269531 164.097656 230.199219 164.097656 230.199219 Z M 164.097656 230.199219 "/>
<path style=" stroke:none;fill-rule:evenodd;fill:rgb(99.998474%,87.841797%,0%);fill-opacity:1;" d="M 750 383.03125 L 756.886719 404.453125 L 777.921875 396.484375 L 765.480469 415.21875 L 784.824219 426.699219 L 762.410156 428.644531 L 765.496094 450.925781 L 750 434.628906 L 734.503906 450.925781 L 737.589844 428.644531 L 715.175781 426.699219 L 734.519531 415.21875 L 722.078125 396.484375 L 743.113281 404.453125 Z M 750 383.03125 "/>
<path style=" stroke:none;fill-rule:evenodd;fill:rgb(99.998474%,87.841797%,0%);fill-opacity:1;" d="M 750 49.699219 L 756.886719 71.117188 L 777.921875 63.148438 L 765.480469 81.886719 L 784.824219 93.367188 L 762.410156 95.3125 L 765.496094 117.59375 L 750 101.292969 L 734.503906 117.59375 L 737.589844 95.3125 L 715.175781 93.367188 L 734.519531 81.886719 L 722.078125 63.148438 L 743.113281 71.117188 Z M 750 49.699219 "/>
<path style=" stroke:none;fill-rule:evenodd;fill:rgb(99.998474%,87.841797%,0%);fill-opacity:1;" d="M 625 185.113281 L 631.886719 206.535156 L 652.921875 198.566406 L 640.480469 217.300781 L 659.824219 228.785156 L 637.410156 230.730469 L 640.496094 253.011719 L 625 236.710938 L 609.503906 253.011719 L 612.589844 230.730469 L 590.175781 228.785156 L 609.519531 217.300781 L 597.078125 198.566406 L 618.113281 206.535156 Z M 625 185.113281 "/>
<path style=" stroke:none;fill-rule:evenodd;fill:rgb(99.998474%,87.841797%,0%);fill-opacity:1;" d="M 861.109375 151.78125 L 868.003906 173.203125 L 889.027344 165.234375 L 876.585938 183.96875 L 895.929688 195.449219 L 873.527344 197.394531 L 876.609375 219.675781 L 861.109375 203.378906 L 845.613281 219.675781 L 848.699219 197.394531 L 826.292969 195.449219 L 845.628906 183.96875 L 833.1875 165.234375 L 854.222656 173.203125 Z M 861.109375 151.78125 "/>
<path style=" stroke:none;fill-rule:evenodd;fill:rgb(99.998474%,87.841797%,0%);fill-opacity:1;" d="M 800 252.082031 L 805.445312 265.429688 L 819.816406 266.480469 L 808.804688 275.78125 L 812.246094 289.769531 L 800 282.175781 L 787.753906 289.769531 L 791.195312 275.78125 L 780.183594 266.480469 L 794.554688 265.429688 Z M 800 252.082031 "/>
<path style=" stroke:none;fill-rule:evenodd;fill:rgb(99.998474%,87.841797%,0%);fill-opacity:1;" d="M 500 147.917969 C 442.496094 147.917969 395.832031 194.578125 395.832031 252.082031 C 395.832031 309.585938 442.496094 356.25 500 356.25 C 526.960938 356.25 551.300781 345.726562 569.808594 328.90625 C 568.441406 329.574219 567.230469 330.484375 565.828125 331.078125 C 560.703125 333.242188 555.347656 334.929688 549.773438 336.066406 C 544.191406 337.207031 538.394531 337.800781 532.480469 337.800781 C 526.5625 337.800781 520.769531 337.207031 515.195312 336.066406 C 509.609375 334.929688 504.257812 333.242188 499.128906 331.078125 C 494.003906 328.90625 489.152344 326.203125 484.59375 323.121094 C 480.027344 320.035156 475.738281 316.578125 471.859375 312.703125 C 467.984375 308.820312 464.453125 304.535156 461.367188 299.964844 C 458.292969 295.410156 455.65625 290.558594 453.484375 285.433594 C 451.320312 280.304688 449.632812 274.953125 448.492188 269.367188 C 447.355469 263.792969 446.761719 258 446.761719 252.082031 C 446.761719 246.167969 447.355469 240.371094 448.492188 234.796875 C 449.632812 229.214844 451.320312 223.859375 453.484375 218.734375 C 455.65625 213.605469 458.292969 208.757812 461.367188 204.199219 C 464.453125 199.632812 467.984375 195.347656 471.859375 191.460938 C 475.738281 187.589844 480.027344 184.132812 484.59375 181.046875 C 489.152344 177.960938 494.003906 175.261719 499.128906 173.085938 C 504.257812 170.921875 509.609375 169.238281 515.195312 168.097656 C 520.769531 166.960938 526.5625 166.363281 532.480469 166.363281 C 538.394531 166.363281 544.191406 166.960938 549.773438 168.097656 C 555.347656 169.238281 560.703125 170.921875 565.828125 173.085938 C 567.230469 173.679688 568.441406 174.59375 569.808594 175.261719 C 551.300781 158.441406 526.960938 147.917969 500 147.917969 Z M 500 147.917969 "/>
<path style=" stroke:none;fill-rule:evenodd;fill:rgb(0%,50.195312%,0%);fill-opacity:1;" d="M 184.894531 68.417969 C 185.121094 72.648438 184.699219 78.253906 182.941406 82.8125 C 181.160156 87.890625 179.230469 92.960938 179.328125 98.21875 C 176.496094 99.183594 173.582031 92.097656 170.867188 96.265625 C 172.910156 102.027344 177.628906 106.582031 180.867188 111.765625 C 181.414062 113.371094 186.066406 117.570312 183.375 118.546875 C 176.578125 116.21875 174.925781 107.601562 170.710938 102.367188 C 165.8125 93.5625 156.679688 87.347656 146.5 86.914062 C 142.683594 87.011719 130.257812 85.972656 133.488281 92.511719 C 138.246094 95.742188 144.117188 97.859375 148.820312 101.488281 C 152.320312 101.824219 158.675781 107.667969 158.300781 109.878906 C 152.140625 107.382812 149.261719 104.394531 142.617188 101.765625 C 133.628906 98.292969 121.183594 100.382812 116.203125 109.308594 C 115.273438 111.628906 113.910156 118.410156 116.828125 119.050781 C 120.238281 113.730469 125.113281 107.769531 132.347656 109.375 C 138.027344 109.816406 126.007812 119.953125 130.605469 117.914062 C 132.066406 117.269531 135.425781 115.054688 137.761719 114.828125 C 140.085938 114.601562 141.398438 116.339844 143.164062 116.585938 C 146.703125 117.066406 147.679688 118.554688 147.355469 119.417969 C 146.964844 120.433594 145.839844 119.566406 142.242188 120.703125 C 140.4375 121.273438 139.503906 122.859375 137.402344 123.582031 C 135.300781 124.308594 130.941406 124.355469 129.304688 123.714844 C 123.601562 121.230469 114.234375 121.664062 112.457031 128.816406 C 112.457031 131.964844 109.660156 128.476562 108.367188 129.832031 C 107.390625 133.269531 107.144531 136.792969 102.050781 136.476562 C 98.957031 139.722656 95.792969 143.074219 91.871094 145.386719 C 94.171875 150.667969 103.296875 140.078125 102.871094 144.539062 C 98.886719 149.984375 104.921875 151.132812 107.570312 146.941406 C 112.042969 142.210938 117.578125 136.457031 124.261719 141.226562 C 127.433594 144.214844 129.28125 139.640625 131.582031 139.886719 C 133.03125 143.605469 134.855469 140.070312 136.5 139.019531 C 139.191406 138.679688 138.433594 142.382812 141.632812 140.105469 C 148.015625 135.882812 155.859375 139.429688 162.09375 135.320312 C 168.726562 132.300781 163.027344 137.761719 161.199219 139.890625 C 158.285156 145.539062 160.808594 152.960938 154.484375 156.46875 C 151.945312 163.207031 157.488281 172.085938 151.839844 177.066406 C 151.015625 180.191406 159.105469 179.832031 161.367188 181.117188 C 165.347656 181.273438 161.199219 172.011719 165.144531 170.777344 C 170.441406 174.046875 170.191406 164.917969 169.101562 162.101562 C 169.613281 155.695312 169.972656 148.699219 173.152344 142.894531 C 176.539062 135.785156 179.671875 145.792969 175.886719 148.601562 C 173.730469 155.144531 170.597656 163.324219 175.488281 169.398438 C 176.902344 169.71875 178.058594 173.136719 179.882812 174.183594 C 181.714844 175.234375 184.203125 173.917969 184.660156 170.808594 C 187.003906 161.449219 185.824219 151.375 189.160156 142.277344 C 191.519531 139.453125 194.773438 141.820312 196.238281 144.410156 C 200.925781 149.855469 204.222656 156.65625 209.894531 161.132812 C 215.0625 163.550781 219.628906 167.203125 222.003906 172.523438 C 221.972656 176.628906 233.660156 177.253906 230.167969 172.699219 C 226.816406 168.253906 229.027344 163.820312 232.421875 160.863281 C 234.238281 161.3125 233.699219 158.054688 232.273438 159.339844 C 229.996094 158.804688 229.851562 154.632812 233.023438 156.617188 C 238.363281 158.339844 232.601562 152.75 230.671875 152.578125 C 226.15625 149.78125 220.972656 146.558594 218.75 141.699219 C 224.625 141.757812 230.730469 144.929688 236.734375 142.960938 C 241.550781 140.488281 246.433594 143.164062 248.121094 147.414062 C 251.839844 146.820312 250.253906 143.082031 248.121094 141.835938 C 250.835938 140.714844 252.726562 138.386719 249.421875 136.335938 C 247.679688 134.058594 251.757812 130.175781 246.746094 130.335938 C 246.910156 126.507812 245.402344 122.996094 241.21875 121.679688 C 237.035156 118.132812 224.757812 126.894531 225.113281 118.914062 C 223.878906 114.558594 230.101562 118.328125 231.84375 116.164062 C 233.640625 111.582031 223.273438 112.027344 226.699219 108.472656 C 228.929688 107.03125 239.414062 104.972656 231.195312 103.425781 C 227.089844 104.554688 223.566406 103.71875 220.347656 101.691406 C 217.398438 106.617188 209 99.023438 210.496094 107.769531 C 209.339844 111.066406 201.839844 119.628906 199.804688 113.070312 C 201.527344 107.925781 210.433594 106.242188 207.675781 99.308594 C 207.25 94.980469 203.664062 100.066406 201.96875 99.738281 C 201.113281 97.046875 204.558594 93.871094 206.957031 93.230469 C 211.726562 96.890625 211.863281 88.605469 216.398438 89.28125 C 219.710938 88.542969 215.332031 87.125 214.414062 86.5 C 215.316406 84.082031 220.394531 82.847656 215.414062 80.738281 C 211.019531 77.472656 207.765625 83.984375 204.132812 84.332031 C 200.660156 80.402344 207.300781 78.515625 209.132812 76.449219 C 209.230469 74.902344 205.257812 75.984375 206.453125 74.640625 C 207.488281 72.785156 214.519531 72.648438 211.230469 69.863281 C 206.265625 68.164062 199.878906 68.585938 195.117188 70.792969 C 192.121094 71.761719 191.242188 78.539062 188.65625 78.253906 C 187.445312 75.234375 189.054688 69.289062 184.894531 68.417969 Z M 208.332031 134.601562 C 212.109375 133.96875 208.414062 140.339844 206.601562 140.25 C 206.753906 137.957031 201.132812 138.175781 204.621094 136.179688 C 205.753906 135.449219 207.015625 134.894531 208.332031 134.601562 Z M 208.332031 134.601562 "/>
</g>
</svg>
